X:1
T:Title
%%score ( 1 2 ) { 3 | 4 } ( 5 6 )
L:1/8
Q:1/4=150
M:4/4
K:Eb
V:1 treble nm="Grand Piano, Staff"
V:2 treble 
V:3 bass nm="Grand Piano, Staff-1"
V:4 bass 
V:5 treble nm="Grand Piano, Staff-2"
V:6 treble 
V:1
 [EG]8 | B8 | [EB]8 | [Ec]8 | B4 z4 | A8 | [EG]8 | [FG]8 | [EG]8 | [EA]8 | [F=A]8 | e4 z4 | [DB]8 | %13
w: By~C.~R.~Cuff|||||||||||||
 [F=B]8 | [Ec]4 [Ad]4 | [Ge]8 | [FA]8 | G4 z4 | [EG]8 | [DA]8 | [EG]8 |] %21
w: ||||||||
V:2
 x8 | E4 D4 | x8 | x8 | E4- [EG]4 | E4 D4 | x8 | x8 | x8 | x8 | x8 | E4- [E=A]4 | x8 | x8 | x8 | %15
 x8 | x8 | E4- [EF]4 | x8 | x8 | x8 |] %21
V:3
 B,8 | A,8 | G,8 | A,8 | B,8 | C4 B,4 | B,8 | =B,8 | C4 _D4 | C4 z4 | C8 | =A,4 C4 | B,8 | C8 | %14
 C4[K:bass] A,4 | C8 | B,8 | B,4 C4 | B,8 | B,8 | B,8 |] %21
V:4
 E,8 | B,,8 | E,8 | z8 | G,8 | F,8 | E,8 | D,8 | C,4 B,,4 | A,,8 | F,8 | F,8 | z8 | G,8 | A,4 F,4 | %15
 C,8 | D,8 | E,4 A,,4 | B,,8 | B,,8 | E,8 |] %21
V:5
 [EG]8 | B8 | [EB]8 | [Ec]8 | B4 z4 | A8 | [EG]8 | [FG]8 | [EG]8 | [EA]8 | [F=A]8 | e4 z4 | [DB]8 | %13
 [F=B]8 | [Ec]4 [Ad]4 | [Ge]8 | [FA]8 | G4 z4 | [EG]8 | [DA]8 | [EG]8 |] %21
V:6
 x8 | E4 D4 | x8 | x8 | E4- [EG]4 | E4 D4 | x8 | x8 | x8 | x8 | x8 | E4- [E=A]4 | x8 | x8 | x8 | %15
 x8 | x8 | E4- [EF]4 | x8 | x8 | x8 |] %21

